icon-themes/sifr_svg/cmd/hu/sc_underline.svg

<svg viewBox="0 0 16 16" xmlns="http://www.w3.org/2000/svg"><path d="m5 2v2h4c.552285 0 1 .4477153 1 1v1h-4c-1.6568542 0-3 1.343146-3 3s1.3431458 3 3 3h6v-7c0-1.6568542-1.343146-3-3-3zm1 6h4v2h-4c-.5522847 0-1-.447715-1-1s.4477153-1 1-1zm-4 5v2h12v-2z" fill="#555753"/></svg>

<svg xmlns="http://www.w3.org/2000/svg" viewBox="0 0 16 16">
<path
   style="fill:#555753"
   d="M 5 2 L 5 4 L 9 4 C 9.552285 4 10 4.4477153 10 5 L 10 6 L 6 6 C 4.3431458 6 3 7.343146 3 9 C 3 10.656854 4.3431458 12 6 12 L 12 12 L 12 5 C 12 3.3431458 10.656854 2 9 2 L 5 2 z M 6 8 L 10 8 L 10 10 L 6 10 C 5.4477153 10 5 9.552285 5 9 C 5 8.447715 5.4477153 8 6 8 z M 2 13 L 2 15 L 14 15 L 14 13 L 2 13 z "
   />
</svg>
